icon/bts/move.svg

<svg xmlns="http://www.w3.org/2000/svg" width="32" height="32" fill="none" stroke="currentcolor" stroke-linecap="round" stroke-linejoin="round" stroke-width="2"><path d="M3 16h26M16 3v26M12 7l4-4 4 4m-8 18 4 4 4-4m5-13 4 4-4 4M7 12l-4 4 4 4"/></svg>

<svg id="i-move" xmlns="http://www.w3.org/2000/svg" viewBox="0 0 32 32" fill="none" stroke="currentcolor" stroke-linecap="round" stroke-linejoin="round" stroke-width="2" height="1em" width="1em">
  <path d="M3 16 L29 16 M16 3 L16 29 M12 7 L16 3 20 7 M12 25 L16 29 20 25 M25 12 L29 16 25 20 M7 12 L3 16 7 20"/>
</svg>
